X: 17619
T: Hökpers Vals
R: waltz
M: 3/4
K: Dminor
[V:T1]|:A2|"Dm"d3 e fa|"Gm"g3 f ed|"A7"^c2 A3 G|"Dm"F4 D2|F2 EF AG|"C"E4 c2|"Gm"=B2 GA Bd|"A"A2- "B"A2 "C#"A2|
[V:T2]|:A2|F3A df|e3d ^c=B|A2 F3E|D4 A,2|A2 GA FD|C4 A2|G2 GE DE|^C4 A2|
[V:T1]"Dm"d3 e fa|"Gm"g3 f ed|"A7"^c2 A3 G|"Dm"F4 E2|"Dm/F"D2 ^CD EF|"Gm"A2 G2 FE|"A7"F2 E2 D^C|"Dm"D4:|
[V:T2]F3A df|e3d ^c=B|A2 F3E|D4 A,2|F2 EF GA|c2 B3G|A2 G2 FE|F4:|
[V:T1]|:A2|"Dm"AF FD FA|"Dm/A"AF FD FA|"Dm/F"A2 G3 F|"A7"E4 G2|"A7/C#"GE E^C EG|"A7/E"GE E^C EG|"A"G2 "B"A2- "C#"AE|"Dm"F4 A2|
[V:T2]|:d2|dA AF Ad|dA AF Ad|d2 e3d|^c4 c2|^cA AE Ac|^cA AE Ac|^c2 d3 c|d4 d2|
[V:T1]"Dm"AF FD FA|"Dm/C"AF FD FA|"Dm/Bb"B2 d3 c|"Eb"B4 B2|"Gm"Bc cB BA|"Dm"AG A2 F2|"A7"GF E2 D^C|"Dm"D4:|
[V:T2]dA AF Ad|dA AF Ad|B2 B3A|G4 G2|G2 A3G|F6|F2 G2 FE|F4:|

